assets/themes/natuurpunt/toilets.svg

<?xml version="1.0" encoding="UTF-8" standalone="no"?>
<svg
   width="247"
   height="113.56189"
   viewBox="0 0 247 113.56189"
   version="1.1"
   id="svg7"
   sodipodi:docname="toilets.svg"
   inkscape:version="1.1.1 (1:1.1+202109281949+c3084ef5ed)"
   xmlns:inkscape="http://www.inkscape.org/namespaces/inkscape"
   xmlns:sodipodi="http://sodipodi.sourceforge.net/DTD/sodipodi-0.dtd"
   xmlns="http://www.w3.org/2000/svg"
   xmlns:svg="http://www.w3.org/2000/svg">
  <defs
     id="defs11" />
  <sodipodi:namedview
     id="namedview9"
     pagecolor="#505050"
     bordercolor="#eeeeee"
     borderopacity="1"
     inkscape:pageshadow="0"
     inkscape:pageopacity="0"
     inkscape:pagecheckerboard="0"
     showgrid="false"
     inkscape:zoom="2.387605"
     inkscape:cx="77.483502"
     inkscape:cy="39.99824"
     inkscape:current-layer="svg7" />
  <g
     id="surface1"
     transform="translate(-78,39.038983)">
    <path
       style="fill:#ffffff;fill-opacity:1;fill-rule:nonzero;stroke:none"
       d="M 104,72.800781 78,-37.179688 h 22.75 L 117,39 137.41016,-37.179688 h 26 l 19.6289,76.828126 16.90235,-76.828126 h 22.35937 l -26,109.980469 h -24.3125 L 150.14844,-9.359375 128.30859,72.800781 Z m 0,0"
       id="path2" />
    <path
       style="fill:#ffffff;fill-opacity:1;fill-rule:nonzero;stroke:none"
       d="M 303.94141,32.371094 325,39 c -2.39063,10.46875 -8.19922,19.847656 -16.51172,26.648438 -8.48828,6.128906 -18.78516,9.242187 -29.25,8.839843 -13.32812,0.304688 -26.16797,-5.027343 -35.35937,-14.6875 -9.92188,-11.257812 -15.01172,-25.96875 -14.16797,-40.949219 -0.98438,-15.515624 4.09375,-30.804687 14.16797,-42.640624 9.65234,-10.226563 23.26171,-15.773438 37.3125,-15.210938 12.0664,-0.464844 23.83203,3.828125 32.75781,11.960938 5.37109,5.640624 9.17969,12.585937 11.05078,20.148437 l -22.10156,5.332031 c -1.11328,-5.132812 -3.96094,-9.722656 -8.0586,-13 -4.30859,-3.335937 -9.63281,-5.078125 -15.07812,-4.941406 -7.48438,-0.375 -14.73828,2.632812 -19.76172,8.191406 -5.82031,8.292969 -8.53516,18.371094 -7.67188,28.46875 -0.92968,10.507813 1.77735,21.019532 7.67188,29.769532 4.78125,5.804687 11.98437,9.070312 19.5,8.839843 5.60937,0.07031 11.03516,-1.972656 15.21094,-5.71875 4.89843,-4.75 8.13281,-10.949219 9.23047,-17.679687 z m 0,0"
       id="path4" />
  </g>
</svg>

<?xml version="1.0" encoding="UTF-8" standalone="yes"?>
<svg xmlns="http://www.w3.org/2000/svg" xmlns:xlink="http://www.w3.org/1999/xlink" width="390px" height="13px" viewBox="0 0 390 13" version="1.1">
  <g id="surface1">
    <path style=" stroke:none;fill-rule:nonzero;fill:rgb(100%,100%,100%);fill-opacity:1;" d="M 104 72.800781 L 78 -37.179688 L 100.75 -37.179688 L 117 39 L 137.410156 -37.179688 L 163.410156 -37.179688 L 183.039062 39.648438 L 199.941406 -37.179688 L 222.300781 -37.179688 L 196.300781 72.800781 L 171.988281 72.800781 L 150.148438 -9.359375 L 128.308594 72.800781 Z M 104 72.800781 "/>
    <path style=" stroke:none;fill-rule:nonzero;fill:rgb(100%,100%,100%);fill-opacity:1;" d="M 303.941406 32.371094 L 325 39 C 322.609375 49.46875 316.800781 58.847656 308.488281 65.648438 C 300 71.777344 289.703125 74.890625 279.238281 74.488281 C 265.910156 74.792969 253.070312 69.460938 243.878906 59.800781 C 233.957031 48.542969 228.867188 33.832031 229.710938 18.851562 C 228.726562 3.335938 233.804688 -11.953125 243.878906 -23.789062 C 253.53125 -34.015625 267.140625 -39.5625 281.191406 -39 C 293.257812 -39.464844 305.023438 -35.171875 313.949219 -27.039062 C 319.320312 -21.398438 323.128906 -14.453125 325 -6.890625 L 302.898438 -1.558594 C 301.785156 -6.691406 298.9375 -11.28125 294.839844 -14.558594 C 290.53125 -17.894531 285.207031 -19.636719 279.761719 -19.5 C 272.277344 -19.875 265.023438 -16.867188 260 -11.308594 C 254.179688 -3.015625 251.464844 7.0625 252.328125 17.160156 C 251.398438 27.667969 254.105469 38.179688 260 46.929688 C 264.78125 52.734375 271.984375 56 279.5 55.769531 C 285.109375 55.839844 290.535156 53.796875 294.710938 50.050781 C 299.609375 45.300781 302.84375 39.101562 303.941406 32.371094 Z M 303.941406 32.371094 "/>
  </g>
</svg>
